X:9481
%9684
T:Little Judique Reel
R:Reel
M:2/4
L:1/16
K:Cmaj
ef|g^fga g2e2|c2G2 G2ef|g^fga g2e2|c4 d3e|
fefg f2d2|B2G2 G2de|fefg f2d2|B4 e3f|
g^fga g2e2|c2G2 G2ef|g^fga 
